svg/fluentui-system-icons/ic_fluent_contact_card_group_16_regular.svg

<svg width="16" height="16" viewBox="0 0 16 16" fill="none" xmlns="http://www.w3.org/2000/svg">
<path d="M10 6.5C10 6.22386 10.2239 6 10.5 6H12.5C12.7761 6 13 6.22386 13 6.5C13 6.77614 12.7761 7 12.5 7H10.5C10.2239 7 10 6.77614 10 6.5ZM10.5 9C10.2239 9 10 9.22386 10 9.5C10 9.77614 10.2239 10 10.5 10H12.5C12.7761 10 13 9.77614 13 9.5C13 9.22386 12.7761 9 12.5 9H10.5ZM6 6C6 6.55228 5.55228 7 5 7C4.44772 7 4 6.55228 4 6C4 5.44772 4.44772 5 5 5C5.55228 5 6 5.44772 6 6ZM3.75 8C3.33579 8 3 8.33579 3 8.75V9.5C3 9.5 3 11 5 11C7 11 7 9.5 7 9.5V8.75C7 8.33579 6.66421 8 6.25 8H3.75ZM8.5 6.25C8.5 6.66421 8.16421 7 7.75 7C7.33579 7 7 6.66421 7 6.25C7 5.83579 7.33579 5.5 7.75 5.5C8.16421 5.5 8.5 5.83579 8.5 6.25ZM7.94489 9.95131C7.94137 9.96716 7.9376 9.9834 7.93356 10H7.99995C8.55223 10 8.99995 9.55228 8.99995 9V8.5C8.99995 8.22386 8.77609 8 8.49995 8H7.83154C7.93953 8.22731 7.99995 8.4816 7.99995 8.75V9.55282H7.99883L7.99848 9.56125C7.99729 9.58794 7.99519 9.6209 7.99154 9.65926C7.98427 9.73562 7.97063 9.83548 7.94489 9.95131ZM1 5.5C1 4.11929 2.11929 3 3.5 3H12.5C13.8807 3 15 4.11929 15 5.5V10.5C15 11.8807 13.8807 13 12.5 13H3.5C2.11929 13 1 11.8807 1 10.5V5.5ZM3.5 4C2.67157 4 2 4.67157 2 5.5V10.5C2 11.3284 2.67157 12 3.5 12H12.5C13.3284 12 14 11.3284 14 10.5V5.5C14 4.67157 13.3284 4 12.5 4H3.5Z" fill="#212121"/>
</svg>

<svg xmlns="http://www.w3.org/2000/svg" width="16" height="16"><path d="M10 6.5a.5.5 0 0 1 .5-.5h2a.5.5 0 0 1 0 1h-2a.5.5 0 0 1-.5-.5Zm.5 2.5a.5.5 0 0 0 0 1h2a.5.5 0 0 0 0-1h-2ZM6 6a1 1 0 1 1-2 0 1 1 0 0 1 2 0ZM3.75 8a.75.75 0 0 0-.75.75v.75S3 11 5 11s2-1.5 2-1.5v-.75A.75.75 0 0 0 6.25 8h-2.5ZM8.5 6.25a.75.75 0 1 1-1.5 0 .75.75 0 0 1 1.5 0Zm-.555 3.701a2.475 2.475 0 0 1-.011.049H8a1 1 0 0 0 1-1v-.5a.5.5 0 0 0-.5-.5h-.668c.108.227.168.482.168.75v.803h-.001v.008l-.007.098a2.494 2.494 0 0 1-.047.292ZM1 5.5A2.5 2.5 0 0 1 3.5 3h9A2.5 2.5 0 0 1 15 5.5v5a2.5 2.5 0 0 1-2.5 2.5h-9A2.5 2.5 0 0 1 1 10.5v-5ZM3.5 4A1.5 1.5 0 0 0 2 5.5v5A1.5 1.5 0 0 0 3.5 12h9a1.5 1.5 0 0 0 1.5-1.5v-5A1.5 1.5 0 0 0 12.5 4h-9Z"/></svg>
